!!!COM:	la Rue, Pierre de
!!!CDT:	~1452///-1518/11/20
!!!OPR:	Missa Inviolata
!!!ONM:	2
!!!OTL:	Gloria
!!!AGN:	Mass; Gloria
!!!SCT:	Rue1017b
!!!SCA:	Rue1017b
!!!voices:	4
**kern	**kern	**kern	**kern
*staff4	*staff3	*staff2	*staff1
*Ivox	*Ivox	*Ivox	*Ivox
*I"Bassus	*I"Tenor	*I"Contra	*I"Discantus
*I'B	*I'T	*I'C	*I'D
*>[A,B]	*>[A,B]	*>[A,B]	*>[A,B]
*>A	*>A	*>A	*>A
*clefF4	*clefGv2	*clefG2	*clefG2
*k[]	*k[]	*k[]	*k[]
*M2/1	*M2/1	*M2/1	*M2/1
*met(C)	*met(C)	*met(C)	*met(C)
!!section: Et in terra pax
!!!OMD: Et in terra pax
=1-	=1-	=1-	=1-
1c	0r	1g	0cc
2c\	.	2g/	.
2c\	.	2g/	.
=2	=2	=2	=2
1A	1r	1a	2cc\
.	.	.	2cc\
1G	1g	1b	1dd
=3	=3	=3	=3
2r	2g\	1r	0ee
1c	2g\	.	.
.	1e	[1cc	.
[2A\	.	.	.
=4	=4	=4	=4
2A\]	2.c\	2cc\]	0r
4G\	.	2cc\	.
4F\	4d\	.	.
2G\	2e\	1b	.
2G\	[2d\	.	.
=5	=5	=5	=5
1D	4d\]	[0a	1.ff
.	4c\	.	.
.	2A/	.	.
2r	2d\	.	.
[2d\	2d\	.	2ff\
=6	=6	=6	=6
2d\]	1A	1a]	1ee
2c\	.	.	.
2B\	1r	2r	1dd
[2G\	.	[2b\	.
=7	=7	=7	=7
2G\]	0r	2b\]	2r
1c	.	2a/	1ee
.	.	1g	.
2B\	.	.	2dd\
=8	=8	=8	=8
2A\	2r	1a	2cc\
2F\	2A/	.	1ff
1C	2.c\	2.g/	.
.	.	.	2ee\
.	4d\	4a/	.
=9	=9	=9	=9
1r	2d\	2b-i\	2dd\
.	1f	4a/	4cc\
.	.	4g/	4b\
2r	.	2f/	2a/
[2G\	2e\	[2g/	4g/
.	.	.	4a/
=10	=10	=10	=10
2G\]	2d\	4g/]	4b\
.	.	4a/	4cc\
2G\	4c\	4b\	4dd\
.	4B\	8a/L	4ee\
.	.	8b/J	.
1F	2.A/	2cc\	2ff\
.	.	4b\	[2dd\
.	4F/	[4a/	.
=11	=11	=11	=11
2D\	2f\	4a/]	4dd\]
.	.	4g/	4dd\
2E\	2e\	1cc	2cc\
2F\	1d	.	2.dd\
2G\	.	2b\	.
.	.	.	8ee\L
.	.	.	8dd\J
=12	=12	=12	=12
1C	[0c	2.cc\	0ee
.	.	4b\	.
2r	.	2a/	.
2C/	.	4g/	.
.	.	4f/	.
=13	=13	=13	=13
2C/	1c]	1e	0r
2.C/	.	.	.
.	2r	2r	.
4D\	.	.	.
4E\	2c\	2g/	.
4C/	.	.	.
=14	=14	=14	=14
1F	2c\	2a/	1r
.	2.c\	2a/	.
1C	.	1g	2r
.	4d\	.	.
.	4e\	.	2cc\
.	4c\	.	.
=15	=15	=15	=15
0r	1f	1r	2cc\
.	.	.	2.cc\
.	1e	2r	.
.	.	.	4dd\
.	.	2g/	4ee\
.	.	.	4cc\
=16	=16	=16	=16
1r	1r	2a/	1ff
.	.	2b\	.
1c	2r	2cc\	1ee
.	2g\	2c/	.
=17	=17	=17	=17
2c\	2g\	4e/	0r
.	.	4d/	.
2c\	1e	4e/	.
.	.	4f/	.
2c\	.	2g/	.
4B\	4d\	2a/	.
4A\	4c\	.	.
=18	=18	=18	=18
0G	2d\	2b\	0r
.	2e\	1cc	.
.	1d	.	.
.	.	2b\	.
=19	=19	=19	=19
2r	1c	1cc	1r
2A\	.	.	.
2.G\	1g	2r	2r
.	.	[2b\	[2dd\
4A\	.	.	.
=20	=20	=20	=20
2B\	2f\	2b\]	2dd\]
2c\	2e\	2a/	2cc\
2G\	2d\	2.b\	2.dd\
[2c\	[2e\	.	.
.	.	4g/	4b\
=21	=21	=21	=21
2c\]	4e\]	2a/	2cc\
.	4d\	.	.
2B\	2d\	2.b\	2dd\
2e\	2g\	.	2b\
.	.	4g/	.
4d\	4f\	2a/	2cc\
4c\	4e\	.	.
=22	=22	=22	=22
2B\	2d\	2b\	2dd\
2A\	2c\	1cc	1ee
1G	1d	.	.
.	.	2b\	2dd\
=23	=23	=23	=23
1C	2c\	1cc	0ee
.	2g\	.	.
2r	2g\	1r	.
2c\	[2e\	.	.
=24	=24	=24	=24
2c\	2e\]	0r	0r
1A	1a	.	.
2B\	[2g\	.	.
=25	=25	=25	=25
2.c\	4g\]	0r	0r
.	4f\	.	.
.	4e\	.	.
4B\	4d\	.	.
4A\	2c\	.	.
4G\	.	.	.
4F\	[2d\	.	.
4E\	.	.	.
=26	=26	=26	=26
2D\	4d\]	1r	0r
.	4B\	.	.
2E\	2c\	.	.
2F\	2d\	1a	.
2F\	2d\	.	.
=27	=27	=27	=27
0C	[0e	1g	0r
.	.	2g/	.
.	.	[2g/	.
=28	=28	=28	=28
1r	1e]	4g/]	1r
.	.	4a/	.
.	.	4b\	.
.	.	4g/	.
1C	2r	1cc	1ee
.	[2g\	.	.
=29	=29	=29	=29
1.G	2g\]	2b\	1dd
.	2g\	2b\	.
.	2g\	[1b	2dd\
2G\	4f\	.	[2dd\
.	4e\	.	.
=30	=30	=30	=30
1G	2d\	2b\]	2dd\]
.	1e	4a/	1gg
.	.	4g/	.
1E	.	1g	.
.	2c\	.	2gg\
=31	=31	=31	=31
2D\	4d\	1r	1ff
.	4c\	.	.
2D\	4B\	.	.
.	4A/	.	.
1G	2B\	[1g	1dd
.	4c\	.	.
.	4B\	.	.
=32	=32	=32	=32
1C	0c	2g/]	0ee
.	.	2g/	.
2r	.	1g	.
[2c\	.	.	.
=33	=33	=33	=33
2c\]	1r	1a	0r
2c\	.	.	.
1e	[1c	1g	.
=34	=34	=34	=34
2A\	2c\]	2.cc\	1r
2.c\	2c\	.	.
.	.	4b\	.
.	1e	4a/	[1cc
4B\	.	4g/	.
4A\	.	[2a/	.
4G\	.	.	.
=35	=35	=35	=35
2F\	1f	2a/]	2cc\]
4E\	.	4g/	2cc\
4D\	.	4f/	.
1C	2e\	2g/	1ee
.	[2e\	[2cc\	.
=36	=36	=36	=36
0r	2e\]	2cc\]	1ff
.	2d\	2b\	.
.	2c\	2cc\	1ee
.	[2e\	[2b\	.
=37	=37	=37	=37
0r	4e\]	2b\]	2r
.	4f\	.	.
.	4g\	2g/	1ee
.	4e\	.	.
.	2.f\	1a	.
.	.	.	2dd\
.	4e\	.	.
=38	=38	=38	=38
2.c\	2e\	2r	2cc\
.	2a\	1cc	2.ee\
4d\	.	.	.
2e\	2g\	.	.
.	.	.	4ff\
2e\	2e\	2b\	4gg\
.	.	.	4ee\
=39	=39	=39	=39
4A\	4a\	4cc\	2ff\
4B\	4g\	4b\	.
4c\	4f\	4a/	1ee
8B\L	4e\	4g/	.
8c\J	.	.	.
1d	1f	1a	.
.	.	.	2dd\
=40	=40	=40	=40
2r	1e	2g/	0ee
1A	.	2a/	.
.	2r	1e	.
2A\	2e\	.	.
=41	=41	=41	=41
2G\	2e\	0r	0r
2F\	2d\	.	.
2.A\	2c\	.	.
.	[2e\	.	.
4B\	.	.	.
=42	=42	=42	=42
4c\	4e\]	0r	0r
4A\	4f\	.	.
2B\	4g\	.	.
.	4e\	.	.
4A\	2f\	.	.
4G\	.	.	.
4F\	[2e\	.	.
4E\	.	.	.
=43	=43	=43	=43
1F	2e\]	1r	0r
.	2d\	.	.
1E	1e	2r	.
.	.	2c/	.
=44	=44	=44	=44
2r	0e	2.e/	0r
2C/	.	.	.
.	.	4f/	.
2E\	.	2g/	.
2F\	.	2a/	.
=45	=45	=45	=45
1G	1d	0b	2r
.	.	.	2g/
1G	1d	.	2b\
.	.	.	2cc\
=46	=46	=46	=46
0r	0d	1b	2dd\
.	.	.	2ee\
.	.	2r	1ff
.	.	2b\	.
=47	=47	=47	=47
2r	0c	2cc\	1ee
2C/	.	2e/	.
2E\	.	2g/	1r
2F\	.	2a/	.
=48	=48	=48	=48
1G	1r	1.b	2r
.	.	.	2g/
2.G\	1e	.	2b\
.	.	4a/	2cc\
4A\	.	4g/	.
=49	=49	=49	=49
2B\	2d\	1g	2dd\
1c	2c\	.	2ee\
.	1d	1r	1ff
2B\	.	.	.
=50	=50	=50	=50
2.c\	1c	1.g	2ee\
.	.	.	1gg
4B\	.	.	.
2G\	1e	.	.
2c\	.	2g/	2ee\
=51	=51	=51	=51
2B-i\	2d\	2.b-i\	4ff\
.	.	.	4ee\
2c\	2c\	.	4dd\
.	.	4a/	4cc\
1G	1d	4g/	2b\
.	.	4f/	.
.	.	2g/	4cc\
.	.	.	4b\
=52	=52	=52	=52
2r	0c	1e	0cc
1A	.	.	.
.	.	2f/	.
2A\	.	[2a/	.
=53	=53	=53	=53
2F\	1r	2a/]	0r
4E\	.	4g/	.
4D\	.	4f/	.
2E\	1c	1g	.
2E\	.	.	.
=54	=54	=54	=54
0D	0d	0f	2r
.	.	.	2.a/
.	.	.	4a/
.	.	.	2a/
=55	=55	=55	=55
2.G\	1d	2r	1b
.	.	2d/	.
4F\	.	.	.
1E	1e	2d/	2.g/
.	.	2c/	.
.	.	.	4a/
=56	=56	=56	=56
1D	0f	2.d/	4b\
.	.	.	4cc\
.	.	.	1dd
.	.	4c/	.
1r	.	2B/	.
.	.	[2A/	2cc\
=57	=57	=57	=57
2r	1f	2A/]	2dd\
2D\	.	2.d/	1a
1A	1e	.	.
.	.	4c/	.
.	.	2c/	2cc\
=58	=58	=58	=58
1D	2.d\	2.f/	2dd\
.	.	.	2.ff\
.	4e\	4e/	.
2.A\	2f\	4c/	.
.	.	4d/	4ee\
.	[2e\	2e/	2cc\
4G\	.	.	.
=59	=59	=59	=59
1F	2e\]	1f	1dd
.	2d\	.	.
2.E\	2.e\	1g	2r
.	.	.	[2g/
4F\	4d\	.	.
=60	=60	=60	=60
2G\	2e\	1r	2g/]
2A\	2c\	.	2cc\
1D	2.f\	[1a	2dd\
.	.	.	[2ff\
.	4e\	.	.
=61	=61	=61	=61
0r	2d\	2a/]	4ff\]
.	.	.	4ee\
.	2c\	2a/	2ee\
.	1B	2.b\	2.dd\
.	.	4a/	4cc\
=62	=62	=62	=62
2r	2r	2g/	2b\
1G	2B\	2.b\	2.dd\
.	1d	.	.
.	.	4cc\	4ee\
2F\	.	2a/	2ff\
=63	=63	=63	=63
2E\	1e	2.g/	2.gg\
1G	.	.	.
.	.	4a/	4ff\
.	2B\	2b\	2dd\
2F\	[2d\	2a/	[2ff\
=64	=64	=64	=64
1D	4d\]	2f/	4ff\]
.	4e\	.	4ee\
.	2f\	2a/	4dd\
.	.	.	4cc\
2E\	2g\	2g/	4b\
.	.	.	4g/
2C/	2e\	4cc\	4b\
.	.	4b\	4cc\
=65	=65	=65	=65
2F\	4f\	4a/	2dd\
.	4e\	4g/	.
2A\	4d\	4f/	1cc
.	4c\	4e/	.
1G	1d	1g	.
.	.	.	2b\
=66	=66	=66	=66
0Cl	0cl	0gl	0ccl
!!LO:LB:i:g=z
=67||	=67||	=67||	=67||
*>B	*>B	*>B	*>B
*clefF4	*clefGv2	*clefG2	*clefG2
*k[]	*k[]	*k[]	*k[]
*M2/1	*M2/1	*M2/1	*M2/1
*met(C)	*met(C)	*met(C)	*met(C)
!!section: Qui tollis
!!!OMD: Qui tollis
1r	0c	0r	0r
[1F	.	.	.
=68	=68	=68	=68
1F]	2c\	0r	0r
.	2c\	.	.
2F\	1d	.	.
2F\	.	.	.
=69	=69	=69	=69
1G	1e	0r	0r
1A	1e	.	.
=70	=70	=70	=70
1D	1.f	0r	0r
2F\	.	.	.
2G\	4e\	.	.
.	4d\	.	.
=71	=71	=71	=71
2.A\	2.f\	0r	0cc
4G\	4e\	.	.
4A\	1c	.	.
4B\	.	.	.
[2c\	.	.	.
=72	=72	=72	=72
4c\]	2r	0r	2cc\
4B\	.	.	.
2A\	2.f\	.	2cc\
2G\	.	.	1dd
.	4e\	.	.
2F\	[2d\	.	.
=73	=73	=73	=73
0E	2d\]	1g	1ee
.	4c#i\	.	.
.	4B\	.	.
.	1c#i	2g/	1ee
.	.	2g/	.
=74	=74	=74	=74
1D	2d\	1f	1ff
.	2f\	.	.
2r	2f\	1a	1cc
2F\	[2f\	.	.
=75	=75	=75	=75
2F\	2f\]	2r	2r
2F\	4e\	1a	2ff\
.	4d\	.	.
1D	2.f\	.	2ff\
.	.	4g/	[2ff\
.	4e\	4f/	.
=76	=76	=76	=76
2F\	1d	2a/	2ff\]
2G\	.	2b\	4ee\
.	.	.	4dd\
2.A\	1c	2cc\	2ff\
.	.	4b\	4ee\
4B\	.	4a/	4dd\
=77	=77	=77	=77
2c\	2r	2g/	2cc\
2d\	2a\	2f/	2ff\
2A\	2a\	2cc\	2ee\
2d\	2f\	2a/	[2dd\
=78	=78	=78	=78
2G\	4g\	2b\	2dd\]
.	4f\	.	.
2B\	4e\	2g/	4cc\
.	4d\	.	4b\
1A	2e\	1a	1cc
.	4f\	.	.
.	4e\	.	.
=79	=79	=79	=79
1D	2f\	2r	2r
.	2d\	2f/	1dd
2r	1e	2g/	.
2A\	.	2e/	2cc\
=80	=80	=80	=80
2D\	1d	2f/	2dd\
2G\	.	2d/	2b\
4C/	1r	1e	2cc\
4D\	.	.	.
4E\	.	.	2a/
4F\	.	.	.
=81	=81	=81	=81
2G\	0r	4d/	2b\
.	.	4c/	.
1G	.	4B/	2g/
.	.	4A/	.
.	.	2G/	2b\
4F\	.	[2c/	2cc\
4E\	.	.	.
=82	=82	=82	=82
2F\	2r	2c/]	1dd
2G\	2g\	2B/	.
2C/	2g\	1c	1ee
2c\	2g\	.	.
=83	=83	=83	=83
2c\	2.g\	0r	1r
1c	.	.	.
.	4f\	.	.
.	2e\	.	[1cc
2B\	2d\	.	.
=84	=84	=84	=84
2A\	1.c	0r	1cc]
2G\	.	.	.
1F	.	.	1cc
.	4B\	.	.
.	4A/	.	.
=85	=85	=85	=85
2E\	2G/	0r	1ee
2C/	1c	.	.
1D	.	.	1ff
.	2B\	.	.
=86	=86	=86	=86
0C	1c	1g	2ee\
.	.	.	2ee\
.	1c	2a/	[1ee
.	.	[2cc\	.
=87	=87	=87	=87
0r	2e\	2cc\]	2ee\]
.	2e\	4b\	4dd\
.	.	4a/	4cc\
.	2f\	2b\	2dd\
.	2f\	2a/	[2cc\
=88	=88	=88	=88
0r	2e\	2g/	4cc\]
.	.	.	4dd\
.	2.c\	2.cc\	4ee\
.	.	.	4ff\
.	.	.	1gg
.	4d\	4b\	.
.	2e\	2g/	.
=89	=89	=89	=89
0r	2d\	2a/	2ff\
.	2e\	2g/	1ee
.	1f	1a	.
.	.	.	2dd\
=90	=90	=90	=90
1r	0e	1.b	0ee
1E	.	.	.
.	.	2g/	.
=91	=91	=91	=91
2.E\	1r	1g	0r
4F\	.	.	.
2G\	1e	1r	.
[2A\	.	.	.
=92	=92	=92	=92
4A\]	1e	0r	0r
4G\	.	.	.
2E\	.	.	.
2F\	1d	.	.
2G\	.	.	.
=93	=93	=93	=93
2E\	2c\	0r	0r
2.F\	4c\	.	.
.	4d\	.	.
.	4e\	.	.
4E\	4f\	.	.
2E\	4g\	.	.
.	4e\	.	.
=94	=94	=94	=94
2.A\	2f\	2r	0r
.	1e	2a/	.
4G\	.	.	.
1F	.	2a/	.
.	2d\	2a/	.
=95	=95	=95	=95
0E	2e\	2.g/	1r
.	2e\	.	.
.	.	4a/	.
.	2e\	2b\	2r
.	2e\	[2g/	2gg\
=96	=96	=96	=96
0r	2c\	4g/]	2gg\
.	.	4f/	.
.	2e\	4g/	2gg\
.	.	4a/	.
.	2.d\	2b\	1ff
.	.	[2cc\	.
.	4c\	.	.
=97	=97	=97	=97
1r	1d	2cc\]	1dd
.	.	2b\	.
1C	1c	1cc	1ee
=98	=98	=98	=98
1G	2r	2r	1r
.	1d	2b\	.
2G\	.	2b\	2r
[2G\	2d\	[2b\	[2dd\
=99	=99	=99	=99
2G\]	[0d	2b\]	2dd\]
4F\	.	4a/	2dd\
4E\	.	4g/	.
2D\	.	2a/	2dd\
2D\	.	2a/	2dd\
=100	=100	=100	=100
2G\	0d]	2g/	2b\
2D\	.	2a/	1dd
4G\	.	2b\	.
4A\	.	.	.
4B\	.	4a/	4cc\
4c\	.	4g/	4b\
=101	=101	=101	=101
1d	1r	4f/	2a/
.	.	4e/	.
.	.	2f/	2dd\
1G	[1d	2g/	2.b\
.	.	[2g/	.
.	.	.	4cc\
=102	=102	=102	=102
1r	1d]	2g/]	1a
.	.	2f#i/	.
1G	1d	1g	1g
=103	=103	=103	=103
2A\	1c	0r	0r
2A\	.	.	.
1F	1d	.	.
=104	=104	=104	=104
0E	0e	2r	2r
.	.	2g/	2gg\
.	.	2g/	2gg\
.	.	2g/	2gg\
=105	=105	=105	=105
1r	1r	2a/	2ff\
.	.	2b\	2dd\
1C	1e	2cc\	2ee\
.	.	4b\	4dd\
.	.	4a/	4cc\
=106	=106	=106	=106
1E	1.e	0g	1.b
2E\	.	.	.
[2G\	2e\	.	4a/
.	.	.	4g/
=107	=107	=107	=107
2G\]	2d\	0r	2b\
4F\	2c\	.	2cc\
4E\	.	.	.
1F	1d	.	1a
=108	=108	=108	=108
0E	0e	2r	1g
.	.	1g	.
.	.	.	2r
.	.	2g/	[2b\
=109	=109	=109	=109
1G	1d	1g	2b\]
.	.	.	2b\
[1G	2d\	1g	1b
.	[2d\	.	.
=110	=110	=110	=110
2G\]	2d\]	1g	2b\
2G\	2d\	.	2.dd\
2C/	2e\	1g	.
.	.	.	4cc\
2C/	2e\	.	2cc\
=111	=111	=111	=111
1G	2.d\	2.g/	2b\
.	.	.	1dd
.	4e\	8f/L	.
.	.	8g/J	.
[1D	2f\	2a/	.
.	[2g\	[2d/	4cc\
.	.	.	4b\
=112	=112	=112	=112
1D]	2g\]	2d/]	1a
.	2f\	2d/	.
2r	2e\	2e/	2g/
[2c\	[2g\	2c/	[2ee\
=113	=113	=113	=113
4c\]	4g\]	1d	4ee\]
4A\	4a\	.	4cc\
2B\	2f\	.	2dd\
2c\	2e\	4c/	2ee\
.	.	4d/	.
2G\	[2g\	4e/	4dd\
.	.	4f/	4cc\
=114	=114	=114	=114
0G	2g\]	0g	4b\
.	.	.	4a/
.	4f\	.	1cc
.	4e\	.	.
.	1d	.	.
.	.	.	2b\
=115	=115	=115	=115
*rscale:2/3	*	*	*
*	*M3/1	*M3/1	*M3/1
*	*met(3)	*met(3)	*met(3)
!!primary-mensuration: met(3)
0.C	0.c	1g	0cc
.	.	1g	.
.	.	1g	1r
*rscale:1	*	*	*
=116	=116	=116	=116
*M3/1	*	*	*
*met(3)	*	*	*
0.r	0.r	1a	1cc
.	.	1.a	1cc
.	.	.	1cc
.	.	2b\	.
=117	=117	=117	=117
0.r	0.r	0b	1dd
.	.	.	1.dd
.	.	1r	.
.	.	.	2ee\
=118	=118	=118	=118
0A	1c	1.cc	0.ee
.	1c	.	.
.	.	2a/	.
1A	1c	1cc	.
=119	=119	=119	=119
1G	1d	1b	0.r
1.F	1.d	1.a	.
2E\	2e\	2g/	.
=120	=120	=120	=120
1.E	0.e	1.g	1gg
.	.	.	1gg
2F\	.	2a/	.
2G\	.	2b\	1ee
2A\	.	2cc\	.
=121	=121	=121	=121
0D	0.r	1.a	1.ff
.	.	2g/	2ee\
1F	.	2f/	2dd\
.	.	2e/	2cc\
=122	=122	=122	=122
1G	1g	1d	1b
2E\	1g	2g/	1.ee
2F\	.	2a/	.
2G\	1e	2b\	.
2A\	.	2cc\	2cc\
=123	=123	=123	=123
0D	1.f	1.a	1.dd
.	2e\	2g/	2cc\
1r	2d\	2f/	2b\
.	2c\	2e/	2a/
=124	=124	=124	=124
0G	1B	1d	0g
.	1.d	1.b	.
1G	.	.	[1dd
.	2c\	2a/	.
=125	=125	=125	=125
1G	1B	1.g	1dd]
0D	0A	.	1dd
.	.	2f#i/	.
.	.	1f#i	1dd
=126	=126	=126	=126
1r	1.G	0.g	1.b
1.G	.	.	.
.	2A/	.	2cc\
.	2B\	.	2dd\
2F\	4A/	.	4cc\
.	4B\	.	4dd\
=127	=127	=127	=127
1E	1.c	0.r	1ee
0D	.	.	1ff
.	2B\	.	.
.	1B	.	1dd
=128	=128	=128	=128
1C	1c	0g	1.ee
1.G	1.B	.	.
.	.	.	2dd\
.	.	1g	1gg
2C/	2G/	.	.
=129	=129	=129	=129
1G	1B	1.g	1dd
1E	1c	.	1gg
.	.	2e/	.
[1D	[1d	1a	2ff\
.	.	.	2ee\
=130	=130	=130	=130
1D]	1d]	1f	2dd\
.	.	.	2cc\
0G	1G	1g	2b\
.	.	.	2a/
.	1g	1d	1b
=131	=131	=131	=131
*M3/1	*	*	*M3/1
*met(C2)	*	*	*met(C2)
*rscale:2/3	*	*	*rscale:2/3
[0.G	1d	1g	[0.b
.	1g	2f/	.
.	.	2e/	.
.	2f\	2d/	.
.	2e\	2c/	.
=132.	=132	=132	=132.
0.G_	2d\	1d	0.b_
.	2c\	.	.
.	1d	1G	.
.	1G	1g	.
=133	=133	=133	=133
0.G_	1g	2f/	0.b_
.	.	2e/	.
.	2f\	2d/	.
.	2e\	2c/	.
.	2d\	2B/	.
.	2c\	2A/	.
=134.	=134	=134	=134.
0.G]	1e	1G	0.b]
.	0d	0g	.
=135	=135	=135	=135
[0.Cl	[0.cl	[0.el	0.r
=136.	=136	=136	=136.
0.C_	0.c_	0.e_	1.r
.	.	.	1.cc
=137	=137	=137	=137
0.C]	0.c]	0.e]	0.ccl
*rscale:1	*	*	*rscale:1
==	==	==	==
*-	*-	*-	*-
!!!RDF**kern: l=long note in original notation
!!!RDF**kern: i=editorial accidental
!!!ENC:	Chris Gage 05-14-2013
!!!END:	2013/07/24/
!!!EED:	Jesse Rodin
!!!EEV:	2013/08/05/
!!!ONB:	Translated from MusicXML and edited on 2013/08/05/ by Craig Sapp
!!muse2ps: T^@{OPR}^u^@{ONM}{. }@{OTL}^C^@{COM}^i2I150v85,85,85,150Q16
